X:1
T:A Major,  F# minor Oliver Holden, 1803
T:Isaac Watts, 1719 (Psalm 63)   86. 86. (C. M.)
T:Arabia Transcribed from The Charlestown Collection, 1803.
%%score [ 1 2 3 4 ]
L:1/8
M:4/4
K:A
V:1 treble nm="Treble" snm="Tr."
V:2 treble nm="Counter" snm="C."
V:3 treble-8 nm="Tenor" snm="T."
V:4 bass nm="Bass" snm="B."
V:1
 c4 | c2 c2 e2 c2 | (Bc) (dc) B3 d | (cB) (AB) c2 B2 | A8 | A4 A2 (FG) | A2 c2 A2 c2 | %7
w: 1.~Ear-|ly, my God, with-|out * de- * lay, I|haste * to * seek Thy|face;|My thir- sty *|spir- it faints a-|
 A2 A2 c2 c2 | c6 c2 | c8 | c4 c2 c2 | c6 e2 | f6 d2 | c6 (A>B) | B2 d2 c2 B2 | c8 | A4 B2 c2 | %17
w: way With- out Thy|cheer- ing|grace.|So pil- grims|on the|scorch- ing|sand Be- *|neath a burn- ing|sky,|Long for a|
 (d3 efe) (dc) | (B3 cdc) (BA) | (A3 BAG) (FE) | F2 E2 G2 G2 | A8 | e4 c2 A2 | E2 G2 A2 A2 | %24
w: cool- * * * ing *|stream * * * at *|hand, * * * Or *|they must drink or|die,|Long for a|cool- ing stream at|
 (c3 d e2) d2 | c6 (dB) | A4 B4 | c8 |] %28
w: hand, * * And|they must *|drink or|die.|
V:2
 E4 | E2 E2 A2 A2 | G2 E2 G3 A | A2 E2 E2 D2 | C8 | F4 F2 F2 | F2 F2 F2 F2 | F2 F2 F2 F2 | ^E6 E2 | %9
w: 2.~I've|seen Thy glo- ry|and Thy pow'r, Through|all the tem- ple|shine;|My God, re-|peat that heaven- ly|hour, That vis- ion|so div-|
 F8 | E4 E2 E2 | A6 A2 | A6 (GF) | E6 A2 | F2 F2 E2 E2 | E8 |"^As  when Thy" z8 | %17
w: ine.|Not all the|bles- sings|of a *|feast Can|please my soul so|well,||
"^rich        –       er           grace                     I         taste,               And        in   Thy  pres – ence     dwell," z8 | %18
w: |
 z8 | z8 | z8 | z8 | A4 A2 E2 | E2 E2 E2 E2 | E6 F2 | E6 A2 | E4 E4 | E8 |] %28
w: ||||As when Thy|rich- er grace I|taste, and|in Thy|pres- ence|dwell.|
V:3
 A4 | A2 A2 A2 A2 | (dc) (BA) e3 f | (ed) (cB) A2 G2 | A8 | c4 (FG) (AB) | c2 f2 (cB) (AB) | %7
w: 3.~Not|life it- self, with|all * her * joys, Can|my * best * pas- sions|move;|Or raise * so *|high my cheer- * ful *|
 c2 c2 A2 A2 | G6 G2 | F8 | A4 A2 A2 | (e3 fed) c2 | (d3 edc) B2 | (A3 BAG) F2 | d2 B2 A2 B2 | A8 | %16
w: voice As Thy for-|giv- ing|love.|Thus till my|last * * * ex-|pir- * * * ing|day * * * I'll|bless my God and|King,|
"^Thus  will  I" z8 | %17
w: |
"^lift                    my        hands                to           pray,               And       tune   my    lips    to        sing." z8 | %18
w: |
 z8 | z8 | z8 | z8 | c4 A2 c2 | B2 B2 E2 E2 | (A3 B c2) B2 | (c3 d e2) (fd) | c4 B4 | A8 |] %28
w: ||||Thus will I|lift my hands to|pray, * * and|tune * * my *|lips to|sing.|
V:4
 A,,4 | C,2 C,2 A,,2 A,2 | E,2 E,2 E,3 D, | C,2 (C,D,) E,2 E,2 | A,,8 | A,,4 D,2 D,2 | %6
 C,2 C,2 F,2 F,2 | F,2 F,2 F,2 F,2 | C,6 C,2 | F,8 | A,4 A,2 A,2 | C6 A,2 | D,6 E,2 | C,6 C,2 | %14
 D,2 D,2 E,2 E,2 | A,,8 | A,4 G,2 A,2 | (B,3 CDC) (B,A,) | E,6 E,2 | A,6 A,,2 | D,2 C,2 B,,2 B,,2 | %21
 A,,8 | A,4 A,2 A,2 | E,2 E,2 E,2 E,2 | (C,3 B,, A,,2) D,2 | (C,3 B,, A,,2) D,2 | E,4 E,4 | A,,8 |] %28

